images/logos/mir.svg

<svg width="54" height="16" viewBox="0 0 54 16" fill="none" xmlns="http://www.w3.org/2000/svg">
<path d="M47.9992 0H37.6992C38.2992 3.4 41.5992 6.60001 45.1992 6.60001H53.3992C53.4992 6.30001 53.4992 5.8 53.4992 5.5C53.4992 2.5 50.9992 0 47.9992 0Z" fill="url(#paint0_linear)"/>
<path d="M38.5996 7.2002V15.5002H43.5996V11.1002H47.9996C50.3996 11.1002 52.4996 9.4002 53.1996 7.2002H38.5996Z" fill="#4FAD50"/>
<path d="M21 0V15.4H25.4C25.4 15.4 26.5 15.4 27.1 14.3C30.1 8.4 31 6.60001 31 6.60001H31.6V15.4H36.6V0H32.2C32.2 0 31.1 0.100006 30.5 1.10001C28 6.20001 26.6 8.8 26.6 8.8H26V0H21Z" fill="#4FAD50"/>
<path d="M0 15.5001V0.100098H5C5 0.100098 6.40001 0.100095 7.20001 2.30009C9.20001 8.10009 9.40002 8.9001 9.40002 8.9001C9.40002 8.9001 9.80001 7.50009 11.6 2.30009C12.4 0.100095 13.8 0.100098 13.8 0.100098H18.8V15.5001H13.8V7.2001H13.2L10.4 15.5001H8.20001L5.40002 7.2001H4.80002V15.5001H0Z" fill="#4FAD50"/>
<defs>
<linearGradient id="paint0_linear" x1="37.6814" y1="3.3473" x2="53.4638" y2="3.3473" gradientUnits="userSpaceOnUse">
<stop stop-color="#27B1E6"/>
<stop offset="1" stop-color="#148ACA"/>
</linearGradient>
</defs>
</svg>

<svg width="54" height="16" fill="none" xmlns="http://www.w3.org/2000/svg"><path d="M48 0H37.7c.6 3.4 3.9 6.6 7.5 6.6h8.2c.1-.3.1-.8.1-1.1C53.5 2.5 51 0 48 0z" fill="url(#paint0_linear)"/><path d="M38.6 7.2v8.3h5v-4.4H48c2.4 0 4.5-1.7 5.2-3.9H38.6zM21 0v15.4h4.4s1.1 0 1.7-1.1c3-5.9 3.9-7.7 3.9-7.7h.6v8.8h5V0h-4.4s-1.1.1-1.7 1.1c-2.5 5.1-3.9 7.7-3.9 7.7H26V0h-5zM0 15.5V.1h5s1.4 0 2.2 2.2c2 5.8 2.2 6.6 2.2 6.6s.4-1.4 2.2-6.6C12.4.1 13.8.1 13.8.1h5v15.4h-5V7.2h-.6l-2.8 8.3H8.2L5.4 7.2h-.6v8.3H0z" fill="#4FAD50"/><defs><linearGradient id="paint0_linear" x1="37.681" y1="3.347" x2="53.464" y2="3.347" gradientUnits="userSpaceOnUse"><stop stop-color="#27B1E6"/><stop offset="1" stop-color="#148ACA"/></linearGradient></defs></svg>
